docs/assets/img/footer_icon_dribbble.svg

<?xml version="1.0" encoding="UTF-8"?>
<svg width="36px" height="36px" viewBox="0 0 36 36" version="1.1" xmlns="http://www.w3.org/2000/svg" xmlns:xlink="http://www.w3.org/1999/xlink">
    <!-- Generator: Sketch 52.6 (67491) - http://www.bohemiancoding.com/sketch -->
    <title>Combined Shape</title>
    <desc>Created with Sketch.</desc>
    <g id="Symbols" stroke="none" stroke-width="1" fill="none" fill-rule="evenodd">
        <g id="footer/A-1" transform="translate(-1057.000000, -30.000000)" fill="#9EAFBF" fill-rule="nonzero">
            <g id="Group" transform="translate(997.000000, 30.000000)">
                <g id="dribbble" transform="translate(60.000000, 0.000000)">
                    <path d="M18,36 C8.0588745,36 0,27.9411255 0,18 C0,8.0588745 8.0588745,0 18,0 C27.9411255,0 36,8.0588745 36,18 C36,27.9411255 27.9411255,36 18,36 Z M18,6.75 C11.796875,6.75 6.75,11.7960709 6.75,18 C6.75,24.2039291 11.796875,29.25 18,29.25 C24.203125,29.25 29.25,24.2039291 29.25,18 C29.25,11.7960709 24.203125,6.75 18,6.75 Z M25.40625,12.0620654 C26.6875,13.6502086 27.46875,15.668637 27.5078125,17.8591794 C27.078125,17.7731224 25.2734375,17.4367177 23.109375,17.4367177 C22.4140625,17.4367177 21.6796875,17.4758345 20.9453125,17.5618915 C20.8828125,17.4132476 20.8203125,17.2567803 20.7578125,17.1081363 C20.5703125,16.6622045 20.359375,16.2162726 20.1484375,15.7781641 C23.46875,14.3934284 25.0703125,12.4923505 25.40625,12.0620654 Z M18,8.5102573 C20.3984375,8.5102573 22.5859375,9.402121 24.265625,10.8729138 C24,11.2327886 22.5625,13.0321627 19.359375,14.2447844 C17.875,11.5300765 16.25,9.27694715 15.8671875,8.75278164 C16.546875,8.59631433 17.265625,8.5102573 18,8.5102573 Z M13.9140625,9.43341446 C14.2421875,9.88716968 15.8671875,12.1559458 17.390625,14.855007 C13.3046875,15.9268081 9.6796875,15.9972184 8.796875,15.9972184 C8.7578125,15.9972184 8.7265625,15.9972184 8.703125,15.9972184 C9.34375,13.0947497 11.296875,10.685153 13.9140625,9.43341446 Z M8.4921875,18.0156467 C8.4921875,17.9374131 8.4921875,17.8591794 8.5,17.7809458 C8.5546875,17.7809458 8.640625,17.7809458 8.75,17.7809458 C9.9296875,17.7809458 14.0234375,17.679242 18.2421875,16.4275035 C18.5,16.9281989 18.7421875,17.4367177 18.96875,17.9452364 C18.859375,17.9765299 18.7578125,18.0078234 18.65625,18.0391168 C13.8984375,19.5803199 11.2890625,23.6484701 10.890625,24.3134562 C9.3984375,22.6314325 8.4921875,20.4330668 8.4921875,18.0156467 Z M18,27.5210362 C15.8203125,27.5210362 13.8125,26.7856398 12.203125,25.5417246 C12.4765625,25.0097357 14.4453125,21.4579277 19.6484375,19.6429068 C19.6484375,19.6429068 19.65625,19.6429068 19.65625,19.6429068 C20.9609375,23.0460709 21.515625,25.9015994 21.6640625,26.7856398 C20.5390625,27.2550417 19.3046875,27.5210362 18,27.5210362 Z M23.3828125,25.8468359 C23.2578125,25.1114395 22.7421875,22.4358484 21.5625,19.1735049 C22.2265625,19.0718011 22.8671875,19.0326843 23.4765625,19.0326843 C25.4609375,19.0326843 27.015625,19.4707928 27.375,19.5803199 C26.9453125,22.169854 25.4609375,24.4073366 23.3828125,25.8468359 Z" id="Combined-Shape"></path>
                </g>
            </g>
        </g>
    </g>
</svg>

<svg xmlns="http://www.w3.org/2000/svg" viewBox="0 0 36 36"><path d="M18 36C8.059 36 0 27.941 0 18S8.059 0 18 0s18 8.059 18 18-8.059 18-18 18zm0-29.25C11.797 6.75 6.75 11.796 6.75 18S11.797 29.25 18 29.25 29.25 24.204 29.25 18 24.203 6.75 18 6.75zm7.406 5.312a9.485 9.485 0 0 1 2.102 5.797 23.734 23.734 0 0 0-4.399-.422c-.695 0-1.43.039-2.164.125l-.187-.454a29.044 29.044 0 0 0-.61-1.33c3.32-1.385 4.922-3.286 5.258-3.716zM18 8.51c2.398 0 4.586.892 6.266 2.363-.266.36-1.703 2.16-4.907 3.372a52.947 52.947 0 0 0-3.492-5.492A9.53 9.53 0 0 1 18 8.51zm-4.086.923a61.375 61.375 0 0 1 3.477 5.422c-4.086 1.072-7.711 1.142-8.594 1.142h-.094a9.577 9.577 0 0 1 5.211-6.564zm-5.422 8.583c0-.079 0-.157.008-.235h.25c1.18 0 5.273-.102 9.492-1.353.258.5.5 1.009.727 1.517l-.313.094c-4.758 1.541-7.367 5.61-7.765 6.274a9.448 9.448 0 0 1-2.399-6.297zM18 27.52a9.44 9.44 0 0 1-5.797-1.98c.274-.531 2.242-4.083 7.445-5.898h.008c1.305 3.403 1.86 6.259 2.008 7.143A9.484 9.484 0 0 1 18 27.52zm5.383-1.674c-.125-.736-.64-3.411-1.82-6.673.664-.102 1.304-.141 1.914-.141 1.984 0 3.539.438 3.898.547a9.54 9.54 0 0 1-3.992 6.267z"/></svg>
